X:1
T:katyusha dueto
T:Katyusha
T:Matvey Blanter
T:Arr: Matheus Matias 
%%score 1 2
L:1/8
Q:1/4=80
M:4/4
K:F
V:1 treble nm="Violino"
V:2 bass nm="Violoncelo"
V:1
"^Moderato"!mf! d3 e f2 d2 | ffed e2 A2 | e3 f g3 e | ggfe d4 | a2 d'2 c'2 d'c' | bbag a2 d2 | %6
 b3 g a2 f2 | eAfe dEGd | c2 f2 e2 fe | ddcB c2 F2 | d3 B c2 A2 |!>(! GCAG F4!>)! | %12
[Q:1/4=110]"^Poco più mosso"!p! fAeA dAeA | defd c2 e2 | gcfc ecgc | efge f4 | d'faf afaf | %17
 gabg f2 a2 | gabg f2 a2 | cdce f4 |!mf! f2 b2 a2 b>a | g/z/gfe f2 B2 | g3 e f3 d | %23
"_dim." eed^c d4 |!mf! f3 d e3 ^c | ddcB A2 d2 | B3 g f3 F | EEFf d4 |[Q:1/4=130]"^Allegro" z8 | %29
 D3 E F3 D/E/ | .F.F.E.D E2 .A,2 | E3 F G3 E |!>(! .G>G FE!<(! DEFG!>)!!<)! | A2 d2 c2 d>c | %34
 .B.B.A.G A2 .D2 | z B2 G A3 F | .G>G FE!<(! D/E/F/G/ (3ABc!<)! | %37
"^Accelerando poco a poco" d3 e f3 d/e/ | .f.f.e.d e2 .A2 | e3 f g3 e | %40
!>(! .g>g fe!<(! defg!>)!!<)! | a2 d'2 c'2 d'>c' | .b.b.a.g a2 .d2 | b3 g a2 f2 | %44
!f!!<(! aa=b^c' !fermata!d'4!<)! |] %45
V:2
 D,8 | D,4 A,4 | C,8 | C,4 D,4 | D,4 F,4 | G,4 D,4 | G,4 D,4 | A,4 D,4 | C,2 D,2 E,2 F,E, | %9
 D,D,E,E, F,2 D,2 | G,4 F,4 | E,4!<(! D,4!<)! |!mf! D,3 E, F,3 D,/E,/ | F,/z/F,E,D, E,2 A,,2 | %14
 E,3 F, G,3 E, |!>(! G,G,F,E,!<(! D,E,F,G,!>)!!<)! | A,2 D2 C2 D>C | B,/z/B,A,G, A,2 D,2 | %18
 B,3 G, A,2 F,2 | E,A,,F,E, D,4 | A,2 D2 C2 D>C | B,/z/B,A,G, A,2 D,2 | B,3 G, A,3 F, | %23
"_dim." G,G,F,E, D,4 | z8 | z8 | z8 | z8 | D,F,A,,F, D,F,A,,F, | D,F,A,,F, D,F,A,,F, | %30
 D,F,A,,F, ^C,F,A,,F, | ^C,F,A,,F, C,F,A,,F, | ^C,F,A,,F, C,F,A,,F, | D, z z2 F, z z2 | %34
 G, z z2 F, z z2 | G, z z2 F, z z2 | D, z z2!>(! F,4!>)! | D,3 E, F,3 D,/E,/ | %38
 .F,.F,.E,.D, E,2 .A,,2 | E,3 F, G,3 E, |!>(! .G,>G, F,E,!<(! D,E,F,G,!>)!!<)! | %41
 A,2 B,2 A,2 B,>A, | .G,.G,.F,.E, F,2 .D,2 | G,3 E, F,4 |!f!!<(! G,G,F,E, !fermata!D,4!<)! |] %45

